svgs/duotone/wrench.svg

<svg xmlns="http://www.w3.org/2000/svg" viewBox="0 0 512 512"><!-- Font Awesome Pro 6.0.0-alpha2 by @fontawesome - https://fontawesome.com License - https://fontawesome.com/license (Commercial License) --><defs><style>.fa-secondary{opacity:.4}</style></defs><path d="M200.625 209.562L21.094 389.094C-7.031 417.219 -7.031 462.781 21.094 490.906C35.156 504.969 53.563 512 72 512S108.844 504.969 122.906 490.906L302.438 311.375C254.186 295.561 216.439 257.814 200.625 209.562ZM80 456C66.746 456 56 445.254 56 432C56 418.744 66.746 408 80 408S104 418.744 104 432C104 445.254 93.254 456 80 456Z" class="fa-secondary"/><path d="M507.328 198.523C492.242 260.703 439.028 309.209 375.692 318.295C268.803 333.633 178.367 243.197 193.703 136.307C202.791 72.973 251.297 19.758 313.477 4.67C340.608 -1.912 366.705 -1.24 390.678 4.824C402.668 7.857 406.621 23.094 397.875 31.84L320 109.715V192H402.285L480.16 114.125C488.907 105.379 504.143 109.332 507.176 121.322C513.24 145.295 513.912 171.393 507.328 198.523Z" class="fa-primary"/></svg>

<svg xmlns="http://www.w3.org/2000/svg" viewBox="0 0 512 512"><!--! Font Awesome Pro 6.3.0 by @fontawesome - https://fontawesome.com License - https://fontawesome.com/license (Commercial License) Copyright 2023 Fonticons, Inc. --><defs><style>.fa-secondary{opacity:.4}</style></defs><path class="fa-primary" d="M507.4 198.7c-15.09 62.18-68.32 110.5-131.7 119.6c-106.9 15.34-197.3-75.1-181.1-181.1c9.088-63.33 57.42-116.6 119.6-131.7c27.13-6.582 53.4-5.89 77.37 .1745c11.99 3.033 15.94 18.27 7.197 27.02L320 109.7l-.0001 82.29L402.3 192l77.88-77.88c8.746-8.746 23.98-4.793 27.02 7.197C513.2 145.3 513.9 171.6 507.4 198.7z"/><path class="fa-secondary" d="M200.6 209.6l-179.5 179.5c-28.12 28.12-28.12 73.69 0 101.8C35.16 504.1 53.56 512 71.1 512s36.84-7.031 50.91-21.09l179.5-179.5C254.2 295.6 216.4 257.8 200.6 209.6zM80 456c-13.25 0-24-10.75-24-24c0-13.26 10.75-24 24-24s24 10.74 24 24C104 445.3 93.25 456 80 456z"/></svg>
